Sources/FrostedUI/Resources/Icons.xcassets/codeblock32.imageset/codeblock-32.svg

<svg width="32" height="32" viewBox="0 0 32 32" fill="none" xmlns="http://www.w3.org/2000/svg" data-fui-icon="true">
  <path
    d="M9.48706 14.6348C9.88711 14.742 10.3384 14.5182 10.4949 14.1348L14.1404 5.19434C14.2967 4.81094 14.0998 4.41305 13.7 4.30567C13.3 4.19858 12.8487 4.42237 12.6921 4.80567L9.04565 13.7461C8.88924 14.1296 9.08699 14.5275 9.48706 14.6348ZM21.2273 25.4756C21.9615 25.4756 22.5576 25.4769 23.0398 25.4375C23.4693 25.4024 23.8591 25.332 24.2234 25.1758L24.3787 25.1035C25.0214 24.776 25.5444 24.253 25.8718 23.6104C26.0799 23.2019 26.1647 22.7624 26.2048 22.2715C26.2442 21.7893 26.2439 21.1931 26.2439 20.459L26.2439 9.55958C26.2439 8.87171 26.2444 8.31308 26.2097 7.86036C26.1744 7.39971 26.0992 6.98658 25.9158 6.59864C25.5778 5.88411 25.0024 5.30869 24.2878 4.97071C23.8999 4.78727 23.4867 4.71209 23.0261 4.67677C22.5734 4.64207 22.0147 4.64259 21.3269 4.64259H20.1218C19.7077 4.64259 19.3719 4.97843 19.3718 5.39259C19.3718 5.8068 19.7076 6.14259 20.1218 6.14259H21.3269C22.038 6.14259 22.5297 6.14357 22.9119 6.17286C23.2854 6.20152 23.493 6.25382 23.6462 6.32618C24.047 6.51578 24.3707 6.83942 24.5603 7.24024C24.6327 7.39346 24.685 7.60106 24.7136 7.97462C24.7429 8.35675 24.7439 8.84846 24.7439 9.55958L24.7439 20.459C24.7439 21.2179 24.7429 21.7424 24.7097 22.1494C24.6772 22.5476 24.6173 22.7679 24.5349 22.9297C24.3512 23.2902 24.0574 23.583 23.697 23.7666C23.5352 23.849 23.3157 23.9098 22.9177 23.9424C22.5107 23.9756 21.9863 23.9756 21.2273 23.9756L10.4275 23.9756C9.66866 23.9756 9.14405 23.9756 8.73706 23.9424C8.33884 23.9099 8.11861 23.8491 7.95679 23.7666C7.59647 23.583 7.30352 23.29 7.11987 22.9297C7.03741 22.7679 6.97664 22.5477 6.94409 22.1494C6.91086 21.7424 6.91089 21.2179 6.91089 20.459L6.91089 16.0811C6.91083 15.6671 6.57483 15.3313 6.16089 15.3311C5.74671 15.3311 5.41095 15.6669 5.41089 16.0811V20.459C5.41089 21.1931 5.4096 21.7893 5.44897 22.2715C5.48409 22.7013 5.55426 23.0915 5.71069 23.4561L5.78296 23.6104C6.06953 24.1729 6.50556 24.6434 7.04077 24.9717L7.27612 25.1035C7.68464 25.3117 8.124 25.3974 8.61499 25.4375C9.09721 25.4769 9.6934 25.4756 10.4275 25.4756L21.2273 25.4756ZM6.99683 12.915C7.30441 13.1925 7.77898 13.1679 8.0564 12.8604C8.33336 12.5529 8.30883 12.0791 8.00171 11.8018L5.91968 9.92384C5.69337 9.71955 5.69322 9.45426 5.91968 9.25001L8.00171 7.37208C8.30885 7.09472 8.33336 6.62097 8.0564 6.31348C7.77896 6.00614 7.30433 5.98149 6.99683 6.2588L4.91479 8.13575C4.02783 8.93572 4.02798 10.238 4.91479 11.0381L6.99683 12.915ZM15.1316 12.8604C15.409 13.1679 15.8826 13.1924 16.1902 12.915L18.2722 11.0381C19.1589 10.238 19.1591 8.9357 18.2722 8.13575L16.1902 6.2588C15.8827 5.98152 15.409 6.00621 15.1316 6.31348C14.8542 6.62107 14.8787 7.09467 15.1863 7.37208L17.2673 9.25001C17.4937 9.45423 17.4936 9.71956 17.2673 9.92384L15.1863 11.8018C14.8787 12.0792 14.8542 12.5528 15.1316 12.8604Z"
    fill="currentColor"
  />
</svg>

<svg xmlns="http://www.w3.org/2000/svg" width="32" height="32" fill="none" data-fui-icon="true" viewBox="0 0 32 32"><path fill="currentColor" d="M9.487 14.635a.87.87 0 0 0 1.008-.5l3.645-8.94a.645.645 0 0 0-.44-.89.87.87 0 0 0-1.008.5l-3.646 8.941a.645.645 0 0 0 .441.889m11.74 10.84c.735 0 1.33.002 1.813-.038.43-.035.82-.105 1.183-.261l.156-.072a3.4 3.4 0 0 0 1.493-1.494c.208-.408.293-.848.333-1.338.04-.483.039-1.079.039-1.813v-10.9c0-.687 0-1.246-.034-1.699-.036-.46-.11-.873-.294-1.261a3.42 3.42 0 0 0-1.628-1.628c-.388-.184-.801-.259-1.262-.294-.453-.035-1.011-.034-1.7-.034h-1.204a.75.75 0 0 0 0 1.5h1.205c.711 0 1.203 0 1.585.03.373.029.581.08.734.153.401.19.725.513.914.914.073.153.125.361.154.735.029.382.03.873.03 1.585v10.899c0 .759-.001 1.283-.034 1.69-.033.399-.093.619-.175.78-.184.361-.478.654-.838.838-.162.082-.381.143-.78.175-.406.034-.93.034-1.69.034h-10.8c-.758 0-1.283 0-1.69-.034-.398-.032-.618-.093-.78-.175a1.9 1.9 0 0 1-.837-.837c-.083-.162-.143-.382-.176-.78-.033-.408-.033-.932-.033-1.691v-4.378a.75.75 0 0 0-1.5 0v4.378c0 .734-.001 1.33.038 1.813.035.43.105.82.262 1.184l.072.154a3.4 3.4 0 0 0 1.258 1.362l.235.131c.409.209.848.294 1.339.334.482.04 1.078.039 1.813.039zm-14.23-12.56a.75.75 0 0 0 1.005-1.113L5.92 9.924c-.227-.204-.227-.47 0-.674l2.082-1.878A.75.75 0 0 0 6.997 6.26L4.915 8.136c-.887.8-.887 2.102 0 2.902zm8.135-.055a.75.75 0 0 0 1.058.055l2.082-1.877c.887-.8.887-2.102 0-2.902L16.19 6.259a.75.75 0 0 0-1.004 1.113l2.081 1.878c.227.204.227.47 0 .674l-2.08 1.878a.75.75 0 0 0-.055 1.058"/></svg>
